X: 1
T: Barnyards of Delgaty
Z: John Chambers <jc@trillian.mit.edu>
M: C|
L: 1/4
K: A
|: A/B/ \
| "A"c>B AE | "D"FA "A"FE | c>B "F#m"AE | "Bm"FA "E7"BA/B/ \
| "A"c>B AE | "D"FA "A"FE | EE "E7"e>d | cB "A"A :|
|: c/d/ \
| "A"e>A AA | cB cf |  e>A "F#m"AA | "Bm"ce "E7"Bc/d/ \
| "A"e>A AA | cB ce |  EE "E7"e>d | cB "A"A :|
%%sep 5 5 234
K:C
x4 x4 x4 x4 x4 x4 x4 x4 |
x4 x4 x4 x4 x4 x4 x4 x4 |
x4 x4 x4 x4 x4 x4 x4 x4 |
x4 x4 x4 x4 x4 x4 x4 x4 |
x4 x4 x4 x4 x4 x4 x4 x4 |
x4 x4 x4 x4 x4 x4 x4 x4 |
